azure-patterns/svg-backup-dark.svg

<svg xmlns="http://www.w3.org/2000/svg" viewBox="0 0 124 103">
                                
                            
<rect width="124" height="103" fill="black" fill-opacity="0"></rect>
<path d="M111.805 28.7572C111.887 27.892 111.929 26.9848 111.929 26.08C111.929 11.7002 100.068 1.11157e-06 85.5174 1.11157e-06C76.8795 -0.00247093 68.9435 4.11842 64.0654 10.8745C60.9257 8.9389 57.2875 7.8685 53.4857 7.8685C43.1118 7.8685 34.5558 15.737 33.6035 25.7488C35.2155 25.5436 36.8275 25.378 38.4817 25.378C46.1275 25.378 53.4857 27.85 59.4798 32.2181C63.9835 21.8751 75.4337 15.2426 88.1214 14.8718V6.01447L103.621 19.2399L88.1214 32.3837V23.7316C80.8475 24.0183 73.7795 26.7376 69.6875 33.3305L70.5134 33.2489C85.3115 33.2489 97.5454 44.2915 99.2814 58.4217C102.796 61.0594 105.563 64.231 107.547 67.8575C117.137 65.3014 124 57.0621 124 46.9663C124 38.8506 119.617 32.3812 111.805 28.7572Z" fill="#1A1A1F"></path>
<path d="M12.1942 63.0346C12.1123 62.1273 12.0702 61.2226 12.0702 60.3153C12.0702 45.9355 23.932 34.2773 38.4822 34.2773C47.12 34.2773 55.056 38.3982 59.9342 45.1123C63.0763 43.1767 66.712 42.1458 70.5163 42.1458C81.5102 42.1458 90.4803 51.0032 90.4803 61.8801L90.4382 63.4474C97.8782 67.1975 101.888 73.4171 101.888 81.2041C101.888 93.4407 91.8865 103 79.1145 103H22.7738C10.0018 103 0 93.4407 0 81.2041C0 73.1304 4.38216 66.6611 12.1942 63.0346Z" fill="#1A1A1F"></path>
</svg>

<svg xmlns="http://www.w3.org/2000/svg" viewBox="0 0 124 103"><path fill="none" d="M0 0h124v103H0z"/><path d="M111.805 28.757c.082-.865.124-1.772.124-2.677C111.929 11.7 100.068 0 85.517 0 76.88-.002 68.944 4.118 64.065 10.874a20.12 20.12 0 0 0-10.58-3.006c-10.373 0-18.93 7.869-19.882 17.88 1.612-.204 3.224-.37 4.879-.37a35.722 35.722 0 0 1 20.998 6.84c4.504-10.343 15.954-16.975 28.641-17.346V6.014l15.5 13.226-15.5 13.144v-8.652c-7.273.286-14.341 3.006-18.433 9.599l.825-.082c14.798 0 27.032 11.042 28.768 25.173 3.515 2.637 6.282 5.809 8.266 9.436C117.137 65.3 124 57.062 124 46.966c0-8.115-4.383-14.585-12.195-18.209z" fill="#1A1A1F"/><path d="M12.194 63.035a30.205 30.205 0 0 1-.124-2.72c0-14.38 11.862-26.038 26.412-26.038 8.638 0 16.574 4.121 21.452 10.835 3.142-1.935 6.778-2.966 10.582-2.966 10.994 0 19.964 8.857 19.964 19.734l-.042 1.567c7.44 3.75 11.45 9.97 11.45 17.757 0 12.237-10.002 21.796-22.773 21.796H22.774C10.002 103 0 93.44 0 81.204c0-8.074 4.382-14.543 12.194-18.17z" fill="#1A1A1F"/></svg>
